static/assets/svg/human/humanClothes/tails/tail2.svg

<svg class="tails" width="86" height="380" viewBox="202.715 584.407 163.348 380.048" xmlns="http://www.w3.org/2000/svg"><path d="M265.744 774.119c5.265 0 10.539 7.418 13.729 10.609 2.572 2.572 9.563 3.523 11.233 6.864 4.976 9.952 9.361 18.597 9.361 31.827 0 3.98 5.087 8.454 3.745 12.481-.537 1.609-3.143 1.271-3.745 1.872-1.144 1.144 1.144 5.721 0 6.865-2.392 2.393-2.428 9.157-3.744 13.105-4.928 14.783-13.644 32.082-8.113 48.676 1.588 4.762 5.736 5.112 8.737 8.113 2.323 2.323 2.971 6.091 4.992 8.112.613.613-2.818-3.464-3.12-4.368-1.434-4.301-3.12-9.03-3.12-14.353 0-.359-1.145-7.489-.624-7.489 2.429 0 7.527 11.935 8.737 14.353 4.271 8.543 12.035 15.92 21.841 18.722 1.26.36 10.012 4.966 11.233 3.744 2.176-2.175-9.544-14.537-10.609-15.601-1.082-1.083 0-8.414 0-9.985 0-6.154-1.914-19.388-5.616-23.09-.487-.487-.624-8.112-.624-8.112s10.762 13.101 11.233 13.729c.9 1.2 1.664 2.496 2.496 3.744.832 1.248 1.636 2.515 2.496 3.744 1.605 2.293 5.617 9.039 5.617 6.241 0-10.387 9.729-27.503 3.12-36.195-11.106-14.607-12.226-2.041-10.609-33.075.117-2.252 13.417-17.786 10.609-20.594-2.51-2.509-2.02-9.766-4.992-13.729-1.22-1.626-10.609-10.609-10.609-10.609s3.467-.092 3.744 0c4.748 1.583 9.807 2.853 14.353 4.369 1.742.58 3.12 4.992 3.12 4.992s-1.169-12.324-1.872-13.729c-2.253-4.507-10.127-7.007-13.729-10.609-2.884-2.884-5.476-7.972-8.737-11.233-4.101-4.101 1.207 1.026-9.985-2.496-8.477-2.668-20.478 15.6-41.187 11.232" stroke="#000" fill="#ebac30"/><path d="M283.842 787.187c3.175 0 6.354 5.649 8.278 8.078 1.551 1.959 5.766 2.683 6.773 5.228 3 7.579 5.644 14.162 5.644 24.237 0 3.03 3.067 6.438 2.258 9.505-.324 1.225-1.895.967-2.258 1.425-.69.871.69 4.357 0 5.228-1.442 1.822-1.464 6.973-2.258 9.98-2.971 11.257-8.226 24.431-4.891 37.068.957 3.626 3.458 3.892 5.268 6.178 1.4 1.769 1.791 4.638 3.01 6.178.369.466-1.7-2.639-1.882-3.327-.864-3.276-1.881-6.877-1.881-10.93 0-.273-.69-5.704-.376-5.704 1.465 0 4.538 9.089 5.268 10.931 2.575 6.506 7.256 12.124 13.169 14.258.759.273 6.036 3.781 6.773 2.85 1.312-1.656-5.755-11.069-6.397-11.88-.652-.825 0-6.407 0-7.604 0-4.686-1.154-14.764-3.386-17.583-.294-.371-.376-6.178-.376-6.178s6.488 9.976 6.772 10.455c.543.914 1.004 1.901 1.505 2.851.502.95.987 1.915 1.505 2.852.968 1.745 3.387 6.882 3.387 4.752 0-7.91 5.866-20.945 1.881-27.563-6.696-11.124-7.371-1.555-6.396-25.188.07-1.714 8.089-13.545 6.396-15.683-1.513-1.91-1.218-7.437-3.01-10.455-.735-1.238-6.396-8.079-6.396-8.079s2.09-.07 2.257 0c2.863 1.206 5.913 2.173 8.654 3.328 1.05.441 1.881 3.801 1.881 3.801s-.705-9.385-1.128-10.456c-1.359-3.431-6.106-5.336-8.278-8.078-1.739-2.197-3.302-6.071-5.268-8.554-2.473-3.123.728.781-6.02-1.902-5.112-2.031-12.347 11.88-24.834 8.555" stroke="#000" fill="#e42f2f"/></svg>

<svg class="tails" width="86" height="380" viewBox="202.71499633789062 584.406982421875 163.34844970703125 380.0480041503906" preserveAspectRatio="xMidYMid meet" xmlns="http://www.w3.org/2000/svg">
  <defs id="svgEditorDefs">
    <path id="svgEditorClosePathDefs" class="lines" fill="black" style="stroke-width: 0px; stroke: none;"/>
  </defs>
  <path d="M 265.744 774.119 C 271.009 774.119 276.283 781.537 279.473 784.728 C 282.045 787.3 289.036 788.251 290.706 791.592 C 295.682 801.544 300.067 810.189 300.067 823.419 C 300.067 827.399 305.154 831.873 303.812 835.9 C 303.275 837.509 300.669 837.171 300.067 837.772 C 298.923 838.916 301.211 843.493 300.067 844.637 C 297.675 847.03 297.639 853.794 296.323 857.742 C 291.395 872.525 282.679 889.824 288.21 906.418 C 289.798 911.18 293.946 911.53 296.947 914.531 C 299.27 916.854 299.918 920.622 301.939 922.643 C 302.552 923.256 299.121 919.179 298.819 918.275 C 297.385 913.974 295.699 909.245 295.699 903.922 C 295.699 903.563 294.554 896.433 295.075 896.433 C 297.504 896.433 302.602 908.368 303.812 910.786 C 308.083 919.329 315.847 926.706 325.653 929.508 C 326.913 929.868 335.665 934.474 336.886 933.252 C 339.062 931.077 327.342 918.715 326.277 917.651 C 325.195 916.568 326.277 909.237 326.277 907.666 C 326.277 901.512 324.363 888.278 320.661 884.576 C 320.174 884.089 320.037 876.464 320.037 876.464 C 320.037 876.464 330.799 889.565 331.27 890.193 C 332.17 891.393 332.934 892.689 333.766 893.937 C 334.598 895.185 335.402 896.452 336.262 897.681 C 337.867 899.974 341.879 906.72 341.879 903.922 C 341.879 893.535 351.608 876.419 344.999 867.727 C 333.893 853.12 332.773 865.686 334.39 834.652 C 334.507 832.4 347.807 816.866 344.999 814.058 C 342.489 811.549 342.979 804.292 340.007 800.329 C 338.787 798.703 329.398 789.72 329.398 789.72 C 329.398 789.72 332.865 789.628 333.142 789.72 C 337.89 791.303 342.949 792.573 347.495 794.089 C 349.237 794.669 350.615 799.081 350.615 799.081 C 350.615 799.081 349.446 786.757 348.743 785.352 C 346.49 780.845 338.616 778.345 335.014 774.743 C 332.13 771.859 329.538 766.771 326.277 763.51 C 322.176 759.409 327.484 764.536 316.292 761.014 C 307.815 758.346 295.814 776.614 275.105 772.246" style="stroke: rgb(0, 0, 0); fill: rgb(235, 172, 48);"/>
  <path d="M 283.842 787.187 C 287.017 787.187 290.196 792.836 292.12 795.265 C 293.671 797.224 297.886 797.948 298.893 800.493 C 301.893 808.072 304.537 814.655 304.537 824.73 C 304.537 827.76 307.604 831.168 306.795 834.235 C 306.471 835.46 304.9 835.202 304.537 835.66 C 303.847 836.531 305.227 840.017 304.537 840.888 C 303.095 842.71 303.073 847.861 302.279 850.868 C 299.308 862.125 294.053 875.299 297.388 887.936 C 298.345 891.562 300.846 891.828 302.656 894.114 C 304.056 895.883 304.447 898.752 305.666 900.292 C 306.035 900.758 303.966 897.653 303.784 896.965 C 302.92 893.689 301.903 890.088 301.903 886.035 C 301.903 885.762 301.213 880.331 301.527 880.331 C 302.992 880.331 306.065 889.42 306.795 891.262 C 309.37 897.768 314.051 903.386 319.964 905.52 C 320.723 905.793 326 909.301 326.737 908.37 C 328.049 906.714 320.982 897.301 320.34 896.49 C 319.688 895.665 320.34 890.083 320.34 888.886 C 320.34 884.2 319.186 874.122 316.954 871.303 C 316.66 870.932 316.578 865.125 316.578 865.125 C 316.578 865.125 323.066 875.101 323.35 875.58 C 323.893 876.494 324.354 877.481 324.855 878.431 C 325.357 879.381 325.842 880.346 326.36 881.283 C 327.328 883.028 329.747 888.165 329.747 886.035 C 329.747 878.125 335.613 865.09 331.628 858.472 C 324.932 847.348 324.257 856.917 325.232 833.284 C 325.302 831.57 333.321 819.739 331.628 817.601 C 330.115 815.691 330.41 810.164 328.618 807.146 C 327.883 805.908 322.222 799.067 322.222 799.067 C 322.222 799.067 324.312 798.997 324.479 799.067 C 327.342 800.273 330.392 801.24 333.133 802.395 C 334.183 802.836 335.014 806.196 335.014 806.196 C 335.014 806.196 334.309 796.811 333.886 795.74 C 332.527 792.309 327.78 790.404 325.608 787.662 C 323.869 785.465 322.306 781.591 320.34 779.108 C 317.867 775.985 321.068 779.889 314.32 777.206 C 309.208 775.175 301.973 789.086 289.486 785.761" style="stroke: rgb(0, 0, 0); fill: rgb(228, 47, 47);"/>
</svg>
